Obsidian-SemiLight/actions/24s/page-simple.svg

<svg viewBox="0 0 24 24" xmlns="http://www.w3.org/2000/svg"><path d="m6 4v1 15h1 10 1v-16h-1zm1 1h10v14h-10z" fill="#4d4d4d"/></svg>

<svg xmlns="http://www.w3.org/2000/svg" viewBox="0 0 24 24">
  <defs id="defs3051">
    <style type="text/css" id="current-color-scheme">
      .ColorScheme-Text {
        color:#4d4d4d;
      }
      </style>
  </defs>
 <path style="fill:currentColor;fill-opacity:1;stroke:none" 
     d="M 6 4 L 6 5 L 6 20 L 7 20 L 17 20 L 18 20 L 18 4 L 17 4 L 6 4 z M 7 5 L 17 5 L 17 19 L 7 19 L 7 5 z "
     class="ColorScheme-Text"
     />
</svg>
